X:64
T:5-time waltz (1)
S:Cathy Goss
O:Germany
N:23
M:5/4
L:1/4
A:Bavaria
K:G
d|\
cA BGd | cA BGD/E/ | FA GBd|cA G2 :|
|:D/E/|\
FA GBB | A/B/c/A/ BGD/E/ | FA GBd| cA G2:|
